X:9594
T:Like a Mooncalf - schottisch/schottische/scottish
C:Simon Wascher
Z:abc transcription Simon Wascher
N:please mail errors to: simon.wascher@chello.at
M:2/4
L:1/16
K:Gm
GABc d2cd|e2d2 c2A2|ABcA BcBA|^FGAF ABAG|
GABc d2cd|e2d2 c2A2|ABcA BcBA|^FGAFG4:|
|:GABG A2A2|^FGAF G2G2|GABG ABGA|BGAB B2A2|
GABG A2A2|^FGAF G2G2|GABG ABGA|B2A2G4:|
